X: 10
M: C
L: 1/8
K: D
|:\
u(AB)de f2f(d | g2)g(e f3)(g | f2)ef gecd |1e2d2 dedB :|2 e2d2 defg ||
|: a2A2 AFAd | B2G2 A3g | f2ef gecd |1 e2d2 defg :|2 e2d2 d4 |]
every fiddler hed his ane wye o' him.  Dis is da wye he wis
played in Eshaness whin I wis peerie, an at dat time he wis a
favourite dance.
My sister Jean is come frae France



